X:1
T:Empire Hornpipe (Craig 1)
M:2/4
L:1/16
B:Empire Violin Collection of Hornpipes
H:Published by Thomas Craig
H:Music Publisher, &c.
H:George Street, Aberdeen, N.B.
Z:Peter Dunk December 2011
R:hornpipe
Q:1/4=70
K:A
E2 | AGAB ABcA | BABc de.fg | agaf ecAc | BcBA AGFE |!
AGAB ABcA | BABc defg | aefd cABG | A2A2A2 :|!
cd | efed ceae | fefd ceae | fgaf ecAc | BcBA AGFE |!
AGAB ABcA | BABc defg | aefd cABG | A2A2A2 :|

